modules/material-icons/icons/paypal.svg

<?xml version="1.0" encoding="UTF-8" standalone="no"?>
<!-- Created with Inkscape (http://www.inkscape.org/) -->

<svg
   xmlns:dc="http://purl.org/dc/elements/1.1/"
   xmlns:cc="http://creativecommons.org/ns#"
   xmlns:rdf="http://www.w3.org/1999/02/22-rdf-syntax-ns#"
   xmlns:svg="http://www.w3.org/2000/svg"
   xmlns="http://www.w3.org/2000/svg"
   xmlns:sodipodi="http://sodipodi.sourceforge.net/DTD/sodipodi-0.dtd"
   xmlns:inkscape="http://www.inkscape.org/namespaces/inkscape"
   id="svg3390"
   version="1.1"
   inkscape:version="0.91 r13725"
   xml:space="preserve"
   width="480"
   height="480"
   viewBox="0 0 480 480"
   sodipodi:docname="new-paypal.svg"><metadata
     id="metadata3396"><rdf:RDF><cc:Work
         rdf:about=""><dc:format>image/svg+xml</dc:format><dc:type
           rdf:resource="http://purl.org/dc/dcmitype/StillImage" /><dc:title></dc:title></cc:Work></rdf:RDF></metadata><defs
     id="defs3394"><inkscape:path-effect
       effect="bend_path"
       id="path-effect3560"
       is_visible="true"
       bendpath="m 6.2399998,-23.874916 35.0000002,0"
       prop_scale="1"
       scale_y_rel="false"
       vertical="false" /><clipPath
       clipPathUnits="userSpaceOnUse"
       id="clipPath3404"><path
         d="M 0,48 48,48 48,0 0,0 0,48 Z"
         id="path3406"
         inkscape:connector-curvature="0" /></clipPath><clipPath
       clipPathUnits="userSpaceOnUse"
       id="clipPath3416"><path
         d="M 0,48 48,48 48,0 0,0 0,48 Z"
         id="path3418"
         inkscape:connector-curvature="0" /></clipPath><clipPath
       clipPathUnits="userSpaceOnUse"
       id="clipPath3426"><path
         d="M 0,48 48,48 48,0 0,0 0,48 Z"
         id="path3428"
         inkscape:connector-curvature="0" /></clipPath><clipPath
       clipPathUnits="userSpaceOnUse"
       id="clipPath3434"><path
         d="M 0,48 48,48 48,0 0,0 0,48 Z"
         id="path3436"
         inkscape:connector-curvature="0" /></clipPath><clipPath
       clipPathUnits="userSpaceOnUse"
       id="clipPath3442"><path
         d="m -2.13623e-4,48.0002 48.000013623,0 0,-48.000047412 -48.000013623,0 0,48.000047412 z"
         id="path3444"
         inkscape:connector-curvature="0" /></clipPath><clipPath
       clipPathUnits="userSpaceOnUse"
       id="clipPath3446"><path
         d="m -2.13623e-4,47.9998 48.000013623,0 0,-47.999952588 -48.000013623,0 0,47.999952588 z"
         id="path3448"
         inkscape:connector-curvature="0" /></clipPath><clipPath
       clipPathUnits="userSpaceOnUse"
       id="clipPath3450"><path
         d="M 48,48 0,48 0,0 48,0 48,48 Z"
         id="path3452"
         inkscape:connector-curvature="0" /></clipPath><clipPath
       clipPathUnits="userSpaceOnUse"
       id="clipPath3658"><path
         d="M 0,48 48,48 48,0 0,0 0,48 Z"
         id="path3660"
         inkscape:connector-curvature="0" /></clipPath><clipPath
       clipPathUnits="userSpaceOnUse"
       id="clipPath3668"><path
         d="m -2.28882e-4,48.0001 48.000028882,0 0,-47.99997793 -48.000028882,0 0,47.99997793 z"
         id="path3670"
         inkscape:connector-curvature="0" /></clipPath><clipPath
       clipPathUnits="userSpaceOnUse"
       id="clipPath3676"><path
         d="m -2.28882e-4,48.0001 48.000028882,0 0,-47.99997793 -48.000028882,0 0,47.99997793 z"
         id="path3678"
         inkscape:connector-curvature="0" /></clipPath><clipPath
       clipPathUnits="userSpaceOnUse"
       id="clipPath3680"><path
         d="M 0,0 48,0 48,48 0,48 0,0 Z"
         id="path3682"
         inkscape:connector-curvature="0" /></clipPath></defs><sodipodi:namedview
     pagecolor="#ffffff"
     bordercolor="#666666"
     borderopacity="1"
     objecttolerance="10"
     gridtolerance="10"
     guidetolerance="10"
     inkscape:pageopacity="0"
     inkscape:pageshadow="2"
     inkscape:window-width="1280"
     inkscape:window-height="660"
     id="namedview3392"
     showgrid="false"
     inkscape:zoom="0.98333335"
     inkscape:cx="250.26089"
     inkscape:cy="253.16188"
     inkscape:window-x="-8"
     inkscape:window-y="-8"
     inkscape:window-maximized="1"
     inkscape:current-layer="g3398" /><g
     id="g3398"
     inkscape:groupmode="layer"
     inkscape:label="System_Icon_StickerSheet"
     transform="matrix(1.25,0,0,-1.25,0,480)"><g
       id="g3412"><g
         id="g3414"
         clip-path="url(#clipPath3416)"><g
           id="g3420"
           transform="matrix(1,0,0,-1,0,48)"><g
             id="g3422"><g
               id="g3424"
               clip-path="url(#clipPath3426)" /></g></g></g></g><path
       style="fill:#000000"
       d=""
       id="path3762"
       inkscape:connector-curvature="0" /><path
       style="fill:#000000"
       d=""
       id="path3760"
       inkscape:connector-curvature="0" /><path
       style="fill:#000000"
       d=""
       id="path3758"
       inkscape:connector-curvature="0" /><path
       id="path4200"
       d="m 230.55152,351.9936 -115.2246,0 c -7.89288,0 -14.58871,-5.7344 -15.817777,-13.5168 L 52.919996,43.0912 C 51.998199,37.2672 56.504761,32 62.40042,32 l 55.02615,0 c 7.87368,0 14.57591,5.7344 15.80497,13.504 l 12.57869,79.6992 c 1.21626,7.7824 7.93769,13.5168 15.80497,13.5168 l 36.45579,0 c 75.8946,0 119.70555,36.7168 131.1512,109.504 5.1595,31.8144 0.21124,56.8256 -14.69114,74.336 -16.3875,19.2512 -45.4305,29.44 -83.97953,29.44 z M 243.84716,244.1024 C 237.54822,202.752 205.96387,202.752 175.40375,202.752 l -17.37971,0 12.201,77.2032 c 0.72336,4.6656 4.74982,8.096 9.48043,8.096 l 7.9761,0 c 20.79804,0 40.43743,0 50.5708,-11.84 6.05569,-7.0912 7.88648,-17.6 5.60119,-32.1088 z"
       inkscape:connector-curvature="0"
       style="fill:#000000" /></g><style
     id="style3999"
     type="text/css">
	.st0{fill:#FFFFFF;}
</style><style
     id="style4048"
     type="text/css">
	.st0{fill:#FFFFFF;}
</style></svg>

<svg xmlns="http://www.w3.org/2000/svg" id="svg3390" width="480" height="480"><defs id="defs3394"><clipPath id="clipPath3404"><path d="M0 48h48V0H0v48z" id="path3406"/></clipPath><clipPath id="clipPath3416"><path d="M0 48h48V0H0v48z" id="path3418"/></clipPath><clipPath id="clipPath3426"><path d="M0 48h48V0H0v48z" id="path3428"/></clipPath><clipPath id="clipPath3434"><path d="M0 48h48V0H0v48z" id="path3436"/></clipPath><clipPath id="clipPath3442"><path d="M0 48h48V0H0v48z" id="path3444"/></clipPath><clipPath id="clipPath3446"><path d="M0 48h48V0H0v48z" id="path3448"/></clipPath><clipPath id="clipPath3450"><path d="M48 48H0V0h48v48z" id="path3452"/></clipPath><clipPath id="clipPath3658"><path d="M0 48h48V0H0v48z" id="path3660"/></clipPath><clipPath id="clipPath3668"><path d="M0 48h48V0H0v48z" id="path3670"/></clipPath><clipPath id="clipPath3676"><path d="M0 48h48V0H0v48z" id="path3678"/></clipPath><clipPath id="clipPath3680"><path d="M0 0h48v48H0V0z" id="path3682"/></clipPath></defs><g id="g3398" transform="matrix(1.25 0 0 -1.25 0 480)"><path id="path4200" d="M230.552 351.994H115.327a16.005 16.005 0 0 1-15.818-13.517L52.92 43.09C51.998 37.267 56.505 32 62.4 32h55.027c7.873 0 14.575 5.734 15.805 13.504l12.578 79.7c1.216 7.782 7.938 13.516 15.805 13.516h36.456c75.895 0 119.706 36.717 131.151 109.504 5.16 31.814.211 56.826-14.691 74.336-16.387 19.251-45.43 29.44-83.98 29.44zm13.295-107.892c-6.299-41.35-37.883-41.35-68.443-41.35h-17.38l12.201 77.203c.723 4.666 4.75 8.096 9.48 8.096h7.977c20.798 0 40.437 0 50.57-11.84 6.056-7.091 7.887-17.6 5.602-32.109z"/></g><style id="style3999"></style><style id="style4048"></style></svg>
